X:1
T:Victory All the Time
T:Lelia Naylor Morris, 1901
T:Victory All the Time
T:Public Domain
T:Public Domain
C:Lelia Naylor Morris, 1901
Z:Public Domain
%%score ( 1 2 ) ( 3 4 )
L:1/8
M:4/4
K:G
V:1 treble 
V:2 treble 
V:3 bass 
V:4 bass 
V:1
 [DB][B,G][CF][CA] [B,G]2 [B,D]2 | [G,B,][A,C][B,D][CE] [B,D]4 | %2
w: 1.~They who know the Sav- ior|shall in Him be strong,|
w: 2.~In the midst of bat- tle|be thou not dis- mayed,|
w: 3.~Brave to bear life’s test- ing,|strong the foe to meet,|
 [Dc][DB][DA][CG] [DF][DG][DA][DB] | [^CA]2 [CE]2 [=CA]4 | [DB][B,G][CF][CA] [B,G]2 [B,D]2 | %5
w: Might- y in the con- flict of the|right ’gainst wrong.|This the bless- èd prom- ise|
w: Tho’ the pow’rs of dark- ness ’gainst thee|are ar- rayed.|God, thy Strength, is with thee,|
w: Walk- ing like a he- ro midst the|fur- nace heat,|Do- ing won- drous ex- ploits|
 [^DB][DB][Dc][DB] [=DE]4 | [^CG][CG][CF][CG] [DB][DG][DF][=CE] | [CD]2 [CA]2 [B,G]4 || %8
w: giv- en in God’s Word,|Do- ing won- drous ex- ploits, they who|know the Lord.|
w: caus- ing thee to stand,|Heav- en’s al- lied ar- mies wait at|thy com- mand.|
w: with the Spir- it’s Sword,|Win- ning souls for Je- sus, praise, O|praise the Lord!|
"^Refrain" [GB][GB] [GB]2 [GB][GB] [GB]2 | [GB][GB][GA]G [DG][DF] [DF]2 | %10
w: Vic- to- ry! vic- to- ry!|bless- èd, blood- bought vic- to- ry!|
w: ||
w: ||
 [Ac][Ac] [Ac]2 [Ac][Ac] [Ac]2 | [Bd][Ac][GB][FA] [GB]4 | [DB][B,G][CF][CA] [B,G]2 [B,D]2 | %13
w: to- ry! vic- to- ry! vic-|t’ry all the time! As|Je- ho- vah liv- eth, strength|
w: |||
w: |||
 [Dd][Dd][Dc][DB] [EA]2 [CE]2 | [B,D][B,D][B,G][CA] [DB][DG][EG][Ec] | [DB]2 [CA]2 [B,G]4 |] %16
w: di- vine He giv- eth Un-|to those who know Him— vic- t’ry all|the time! *|
w: |||
w: |||
V:2
 x8 | x8 | x8 | x8 | x8 | x8 | x8 | x8 || x8 | x3 G x4 | x8 | x8 | x8 | x8 | x8 | x8 |] %16
w: |||||||||Vic-|||||||
V:3
 [G,,G,][G,,G,][D,A,][D,F,] [G,,G,]2 [G,,G,]2 | [G,,D,][G,,D,][G,,G,][G,,G,] [G,,G,]4 | %2
w: ~ ~ ~ ~ ~ ~|~ ~ ~ ~ ~|
 [D,A,][D,G,][D,F,][D,E,] D,[D,E,][D,F,][D,G,] | [A,,A,]2 [A,,G,]2 [D,F,]4 | %4
w: ~ ~ ~ ~ ~ ~ ~ ~|~ ~ ~|
 [G,,G,][G,,G,][D,A,][D,F,] [G,,G,]2 [G,,G,]2 | [B,,F,][B,,F,][B,,F,][B,,F,] [E,^G,]4 | %6
w: ~ ~ ~ ~ ~ ~|~ ~ ~ ~ ~|
 [E,A,][E,A,][E,A,][E,A,] [D,G,][D,B,][D,A,][D,G,] | [D,F,]2 [D,F,]2 [G,,G,]4 || %8
w: ~ ~ ~ ~ ~ ~ ~ ~|~ ~ Vic-|
 [G,D][G,D][D,D][D,D] [G,D][G,D] [D,D]2 | [G,D][G,D][G,C][G,B,] [A,C][A,C] [A,C]2 | %10
w: to- ry! yes, vic- to- ry! ~|~ ~ ~ ~ ~ ~ Vic-|
 [F,D][F,D][D,D][D,D] [F,D][F,D] [D,D]2 | [D,D][D,D][D,D][D,D] [G,D]4 | %12
w: to- ry! yes, vic- to- ry! *||
 G,G,[D,A,][D,F,] [G,,G,]2 [G,,G,]2 | [G,B,][G,B,][G,A,]G, [C,G,]2 [C,G,]2 | %14
w: ||
 [D,G,][D,G,][D,G,][D,F,] [D,G,][D,B,][C,C][C,G,] | [D,G,]2 [D,F,]2 [G,,D,]4 |] %16
w: ||
V:4
 x8 | x8 | x4 D, x3 | x8 | x8 | x8 | x8 | x8 || x8 | x8 | x8 | x8 | G,G, x6 | x3 G, x4 | x8 | x8 |] %16
w: ||~||||||||||||||

